X: 107
T: POLKA: We Won't Go Home Til' Morning
C: C: Trad.; S: Brendan & Séamus Begley
C: Set Leaders: Tania, Anton, Sophie
Z: Anton Zille ed., Oleg Naumov arr.; ceolachan at The Session
N: https://thesession.org/members/26966/sets/92029
R: Polka
M: 2/4
L: 1/8
Q: 1/4=140
K: Dmaj
A,|:"D"D>E FG|"D"Ad A2|"G"BG G>B|"A"cA Ad|
"D"D>E FG|"D"Ad A/B/A/G/|"G"FA "A"GE|1 "D"D2 DA,:|2 "D"D2 D2||
|:"D"dA AB/c/|"D"dA A2|"G"BG G>B|"A"cA A2|
"D"dA AB/c/|"D"dA A/B/A/G/|"G"FA "A"GE|1 "D"D2 DB/c/:|2 "D"D2 D2||

